priv/static/images/tools/shopify.svg

<svg
  width="150"
  height="170"
  viewBox="0 0 150 170"
  fill="none"
  xmlns="http://www.w3.org/2000/svg"
>
  <path
    d="M130.7 32.605C130.6 31.705 129.8 31.305 129.2 31.205C128.6 31.105 116.6 31.005 116.6 31.005C116.6 31.005 106.5 21.205 105.5 20.205C104.5 19.205 102.6 19.505 101.8 19.705C101.8 19.705 99.9 20.305 96.7 21.305C96.2 19.605 95.4 17.505 94.3 15.405C90.7 8.505 85.5 4.905 79.1 4.905C78.7 4.905 78.2 4.905 77.8 5.005C77.6 4.805 77.4 4.605 77.2 4.305C74.4 1.305 70.9 -0.0950037 66.7 0.0049963C58.5 0.204996 50.4 6.105 43.7 16.705C39 24.105 35.5 33.405 34.5 40.605C25.1 43.505 18.5 45.505 18.4 45.605C13.7 47.105 13.5 47.205 12.9 51.705C12.4 55.005 0 151.105 0 151.105L104.1 169.105L149.2 157.905C149.2 157.905 130.8 33.405 130.7 32.605ZM91.5 22.905C89.1 23.605 86.4 24.505 83.4 25.405C83.3 21.305 82.8 15.505 80.9 10.505C87.2 11.705 90.2 18.705 91.5 22.905ZM78 27.105C72.5 28.805 66.6 30.605 60.6 32.505C62.3 26.105 65.5 19.705 69.4 15.505C70.9 13.905 72.9 12.205 75.3 11.205C77.6 15.905 78 22.605 78 27.105ZM66.8 5.505C68.7 5.505 70.3 5.905 71.7 6.805C69.5 7.905 67.3 9.605 65.3 11.805C60.1 17.405 56.1 26.005 54.5 34.405C49.5 35.905 44.7 37.405 40.2 38.805C43.2 25.605 54.2 5.905 66.8 5.505Z"
    fill="#95BF47"
  />
  <path
    d="M129.2 31.205C128.6 31.105 116.6 31.005 116.6 31.005C116.6 31.005 106.5 21.205 105.5 20.205C105.1 19.805 104.6 19.605 104.1 19.605V169.105L149.2 157.905C149.2 157.905 130.8 33.505 130.7 32.605C130.5 31.705 129.8 31.305 129.2 31.205Z"
    fill="#5E8E3E"
  />
  <path
    d="M79.1002 54.4051L73.9002 74.0051C73.9002 74.0051 68.1002 71.3051 61.1002 71.8051C50.9002 72.4051 50.8002 78.8051 50.9002 80.5051C51.5002 89.3051 74.5002 91.2051 75.8002 111.705C76.8002 127.905 67.2002 138.905 53.4002 139.805C36.8002 140.805 27.7002 131.105 27.7002 131.105L31.2002 116.205C31.2002 116.205 40.4002 123.105 47.7002 122.705C52.5002 122.405 54.2002 118.505 54.0002 115.705C53.3002 104.305 34.5002 104.905 33.3002 86.2051C32.3002 70.4051 42.7002 54.4051 65.6002 52.9051C74.6002 52.1051 79.1002 54.4051 79.1002 54.4051Z"
    fill="white"
  />
</svg>

<svg xmlns="http://www.w3.org/2000/svg" width="150" height="170" fill="none"><path fill="#95BF47" d="M130.7 32.605c-.1-.9-.9-1.3-1.5-1.4s-12.6-.2-12.6-.2-10.1-9.8-11.1-10.8-2.9-.7-3.7-.5c0 0-1.9.6-5.1 1.6-.5-1.7-1.3-3.8-2.4-5.9-3.6-6.9-8.8-10.5-15.2-10.5-.4 0-.9 0-1.3.1-.2-.2-.4-.4-.6-.7-2.8-3-6.3-4.4-10.5-4.3-8.2.2-16.3 6.1-23 16.7-4.7 7.4-8.2 16.7-9.2 23.9-9.4 2.9-16 4.9-16.1 5-4.7 1.5-4.9 1.6-5.5 6.1-.5 3.3-12.9 99.4-12.9 99.4l104.1 18 45.1-11.2s-18.4-124.5-18.5-125.3m-39.2-9.7c-2.4.7-5.1 1.6-8.1 2.5-.1-4.1-.6-9.9-2.5-14.9 6.3 1.2 9.3 8.2 10.6 12.4m-13.5 4.2c-5.5 1.7-11.4 3.5-17.4 5.4 1.7-6.4 4.9-12.8 8.8-17 1.5-1.6 3.5-3.3 5.9-4.3 2.3 4.7 2.7 11.4 2.7 15.9m-11.2-21.6c1.9 0 3.5.4 4.9 1.3-2.2 1.1-4.4 2.8-6.4 5-5.2 5.6-9.2 14.2-10.8 22.6-5 1.5-9.8 3-14.3 4.4 3-13.2 14-32.9 26.6-33.3"/><path fill="#5E8E3E" d="M129.2 31.205c-.6-.1-12.6-.2-12.6-.2s-10.1-9.8-11.1-10.8c-.4-.4-.9-.6-1.4-.6v149.5l45.1-11.2s-18.4-124.4-18.5-125.3c-.2-.9-.9-1.3-1.5-1.4"/><path fill="#fff" d="m79.1 54.405-5.2 19.6s-5.8-2.7-12.8-2.2c-10.2.6-10.3 7-10.2 8.7.6 8.8 23.6 10.7 24.9 31.2 1 16.2-8.6 27.2-22.4 28.1-16.6 1-25.7-8.7-25.7-8.7l3.5-14.9s9.2 6.9 16.5 6.5c4.8-.3 6.5-4.2 6.3-7-.7-11.4-19.5-10.8-20.7-29.5-1-15.8 9.4-31.8 32.3-33.3 9-.8 13.5 1.5 13.5 1.5"/></svg>
